public/sheesh/icons.svg

<svg width="42" height="42" viewBox="0 0 42 42" fill="none" xmlns="http://www.w3.org/2000/svg">
<rect width="42" height="42" rx="8" fill="#1D202F"/>
<path d="M20.999 11C15.489 11 10.999 15.49 10.999 21C10.999 26.51 15.489 31 20.999 31C26.509 31 30.999 26.51 30.999 21C30.999 15.49 26.509 11 20.999 11ZM25.349 24.57C25.209 24.81 24.959 24.94 24.699 24.94C24.569 24.94 24.439 24.91 24.319 24.83L21.219 22.98C20.449 22.52 19.879 21.51 19.879 20.62V16.52C19.879 16.11 20.219 15.77 20.629 15.77C21.039 15.77 21.379 16.11 21.379 16.52V20.62C21.379 20.98 21.679 21.51 21.989 21.69L25.089 23.54C25.449 23.75 25.569 24.21 25.349 24.57Z" fill="#434665"/>
</svg>

<svg fill="none" height="42" viewBox="0 0 42 42" width="42" xmlns="http://www.w3.org/2000/svg"><rect fill="#1d202f" height="42" rx="8" width="42"/><path d="m20.999 11c-5.51 0-10 4.49-10 10s4.49 10 10 10 10-4.49 10-10-4.49-10-10-10zm4.35 13.57c-.14.24-.39.37-.65.37-.13 0-.26-.03-.38-.11l-3.1-1.85c-.77-.46-1.34-1.47-1.34-2.36v-4.1c0-.41.34-.75.75-.75s.75.34.75.75v4.1c0 .36.3.89.61 1.07l3.1 1.85c.36.21.48.67.26 1.03z" fill="#434665"/></svg>
